img/logo-w.svg

<svg width="144" height="41" viewBox="0 0 144 41" fill="none" xmlns="http://www.w3.org/2000/svg">
<g clip-path="url(#clip0)">
<path fill-rule="evenodd" clip-rule="evenodd" d="M35.0873 9.51605C35.7465 9.92099 36.0507 10.5284 36.0507 11.3383C36.0507 17.4123 36.0507 23.537 36.0507 29.6111C36.0507 30.421 35.7465 31.0284 35.0873 31.4333C29.7127 34.521 24.338 37.6086 19.0141 40.6963C18.3549 41.1012 17.6451 41.0506 16.9352 40.6457C11.6113 37.558 6.28732 34.521 0.96338 31.4333C0.304225 31.0284 0 30.421 0 29.6111V11.3383C0 10.5284 0.304225 9.92099 0.96338 9.51605C6.28732 6.4284 11.6113 3.39136 16.9352 0.303706C17.6451 -0.101232 18.3042 -0.151849 19.0141 0.253089C24.338 3.34074 29.7127 6.4284 35.0873 9.51605Z" fill="#ED1C24"/>
<path d="M42.6929 23.8408C41.1211 23.8408 39.8535 23.8408 38.3324 23.8408C38.231 31.6358 52.6817 31.5346 52.6817 24.0432C52.6817 19.6395 49.2338 19.0827 45.6845 18.7284C44.062 18.526 42.7436 18.2729 42.8958 16.9568C43.0479 14.8309 47.8141 14.6284 47.8141 17.0074C49.3859 17.0074 50.5521 17.0074 52.1239 17.0074C52.2253 9.36422 38.4338 9.36422 38.5859 17.0074C38.6366 20.8543 41.1718 22.1704 45.0253 22.4741C46.8 22.5753 48.2704 22.879 48.2704 24.0939C48.2197 26.1185 42.6929 26.1185 42.6929 23.8408ZM57.8535 15.5901V29.2568C59.3746 29.2568 60.8451 29.2568 62.3662 29.2568V15.5901H66.676C66.676 14.2235 66.676 12.8568 66.676 11.5408H53.4929C53.4929 12.8568 53.4929 14.2235 53.4929 15.5901H57.8535ZM77.7296 21.8161L83.7127 12.1988V11.5408H78.7943L75.5493 17.463H75.3465L72.1521 11.5914H67.2845V12.2494L73.2169 21.8667V29.3074H77.7296V21.8161ZM89.9493 11.5408C88.4282 11.5408 86.907 11.5408 85.3859 11.5408V29.2568C88.9859 29.2568 92.738 29.2568 96.3887 29.2568C96.3887 27.7383 96.3887 26.726 96.3887 25.1568H89.9493C89.9493 17.6655 89.9493 20.7025 89.9493 11.5408ZM104.045 25.3087V15.4889H106.124V11.5408H97.5042V15.4889H99.5831V25.3087H97.3014V29.2568H106.327V25.3087H104.045ZM122.146 29.2568H123.769V11.5408C122.197 11.5408 120.676 11.5408 119.155 11.5408V20.1963L110.18 11.4395H108.507V29.2062C110.028 29.2062 111.6 29.2062 113.223 29.2062V20.5506L122.146 29.2568ZM126.456 20.3988C126.456 26.4729 131.02 29.4593 135.583 29.4593C138.828 29.4593 142.225 28.042 143.493 24.3469C144.101 22.626 144.101 20.905 144 19.1334H135.583V23.0309H139.335C138.524 24.7013 137.358 25.2074 135.532 25.2074C132.845 25.2074 131.121 23.284 131.121 20.3482C131.121 17.6148 132.693 15.3877 135.532 15.3877C137.307 15.3877 138.473 15.9951 139.234 17.5136H143.696C142.834 13.1099 139.082 11.2877 135.532 11.2371C131.02 11.3383 126.456 14.3753 126.456 20.3988Z" fill="#000001"/>
<path d="M16.1239 22.9803C20.6366 19.9432 19.369 11.5408 12.3718 11.5408C9.78592 11.5408 7.1493 11.5408 4.56339 11.5408C4.56339 17.463 4.56339 23.3346 4.56339 29.2568C6.03381 29.2568 7.60564 29.2568 9.12677 29.2568V24.0432H11.4592L14.5014 29.2568H19.5718V28.5988L16.1239 22.9803ZM12.3718 20.0445H9.12677C9.12677 18.6272 9.12677 17.0581 9.12677 15.6408C10.1916 15.6408 11.307 15.6408 12.3718 15.6408C14.9578 15.6408 14.8056 20.0445 12.3718 20.0445ZM31.893 11.5408C27.7352 11.5408 24.8958 11.5408 20.7887 11.5408C20.7887 17.4124 20.7887 23.3346 20.7887 29.2568C24.8958 29.2568 27.938 29.2568 32.0958 29.2568C32.0958 27.8902 32.0958 26.5235 32.0958 25.2074C29.4085 25.2074 27.938 25.2074 25.3014 25.2074C25.3014 24.1445 25.3014 23.1321 25.3014 22.0692H31.3352C31.3352 20.7531 31.3352 19.3864 31.3352 18.0198H25.3014V15.5395C27.8873 15.5395 29.2056 15.5395 31.893 15.5395C31.893 14.2235 31.893 12.8568 31.893 11.5408Z" fill="white"/>
</g>
<defs>
<clipPath id="clip0">
<rect width="144" height="41" fill="white"/>
</clipPath>
</defs>
</svg>

<svg width="144" height="41" viewBox="0 0 144 41" fill="none" xmlns="http://www.w3.org/2000/svg"><g clip-path="url(#clip0)"><path fill-rule="evenodd" clip-rule="evenodd" d="M35.087 9.516c.66.405.964 1.012.964 1.822v18.273c0 .81-.305 1.417-.964 1.822-5.374 3.088-10.749 6.176-16.073 9.263-.66.405-1.369.355-2.079-.05C11.611 37.558 6.287 34.52.963 31.433.304 31.028 0 30.421 0 29.611V11.338c0-.81.304-1.417.963-1.822C6.287 6.428 11.611 3.391 16.935.304c.71-.405 1.37-.456 2.08-.05 5.323 3.087 10.698 6.174 16.072 9.262z" fill="#ED1C24"/><path d="M42.693 23.84h-4.36c-.102 7.796 14.349 7.695 14.349.203 0-4.403-3.448-4.96-6.998-5.315-1.622-.202-2.94-.455-2.788-1.771.152-2.126 4.918-2.329 4.918.05h4.31c.101-7.643-13.69-7.643-13.538 0 .05 3.847 2.586 5.163 6.44 5.467 1.774.101 3.244.405 3.244 1.62-.05 2.024-5.577 2.024-5.577-.253zm15.16-8.25v13.667h4.513V15.59h4.31v-4.05H53.493v4.05h4.36zm19.877 6.226l5.983-9.617v-.658h-4.919l-3.245 5.922h-.203l-3.194-5.872h-4.868v.658l5.933 9.618v7.44h4.513v-7.49zm12.22-10.275h-4.564v17.716h11.003v-4.1h-6.44V11.54zm14.095 13.768v-9.82h2.079V11.54h-8.62v3.948h2.08v9.82H97.3v3.948h9.026v-3.948h-2.282zm18.101 3.948h1.623V11.54h-4.614v8.655l-8.975-8.757h-1.673v17.767h4.716V20.55l8.923 8.706zm4.31-8.858c0 6.074 4.564 9.06 9.127 9.06 3.245 0 6.642-1.417 7.91-5.112.608-1.721.608-3.442.507-5.214h-8.417v3.898h3.752c-.811 1.67-1.977 2.176-3.803 2.176-2.687 0-4.411-1.923-4.411-4.859 0-2.733 1.572-4.96 4.411-4.96 1.775 0 2.941.607 3.702 2.126h4.462c-.862-4.404-4.614-6.226-8.164-6.277-4.512.101-9.076 3.138-9.076 9.162z" fill="#000001"/><path d="M16.124 22.98c4.513-3.037 3.245-11.44-3.752-11.44H4.563v17.717h4.564v-5.214h2.332l3.042 5.214h5.07v-.658l-3.447-5.619zm-3.752-2.936H9.127v-4.403h3.245c2.586 0 2.434 4.403 0 4.403zm19.521-8.503H20.789v17.716h11.307v-4.05H25.3V22.07h6.034v-4.05H25.3v-2.48h6.592v-3.998z" fill="#fff"/></g><defs><clipPath id="clip0"><path fill="#fff" d="M0 0h144v41H0z"/></clipPath></defs></svg>
